X: 0604
T: Lennox Love to Blantyre - 8x32S
P: Lennox Love to Blantyre
C:Nathaniel Gow's Repository (also Bremner 1757 and older)
R:Strathspey (8x32)
B:RSCDS 6-4
Z:Anselm Lingnau <anselm@strathspey.org>
M:C
L:1/8
K:F
C|"F"F2 F>G A>G F>A|"Gm"G<G "Am"A>c "Gm"d>c d>e|\
  "Dm"f>g f>d "F"c>A F>A|"Gm"B>G "F"A>F "Dm"D/D/D D:|
% "F"F2 F>G A>G F>A|"Gm"G<G "Am"A>c "Gm"d>c d>e|\
% "Dm"f>g f>d "F"c>A F>A|"Gm"B>G "F"A>F "Dm"D/D/D D||
f|"F"c>d f>g a>g f>a|"Gm"g>f g>a g>f d>f|\
  "F"c>d f>g a>g f>a|"Gm"g>f b>a "C"g2 "F"f>d|
  "F"c>d f>g a>g f>a|"Gm"g>f g>a g>f d>f|\
  "F"c>d f>g f>g a>f|"Gm"g>f b>a "C7"g2 "F"f2|]
%%center Book06/0604-Lennox_Love_to_Blantyre-AL.abc

%%sep 1 1 500
%%sep 1 1 500

